X:12
T:WestGrove
C: Sarah Gowan
M:2/4
R:Polka
L:1/16
K:G
|d^c|d2B2 B2G2|G2D2D3z|D2D2 G2D2|=F6e^d|
e2c2 c2A2|A2F2 F3E|D2D2 E2_E2|D6d^c|d2B2 B2G2|G2D2 D3A|
|G2G2 A2B2|c6e^d|e2c2 c2A2|A2F2 =F2E2|DD2DE2F2|G6gf||
g2b2 g2e2|d2B2 B2Bc|d2e2 d2^c2|c6d2|e2a2 a2g2|f2e2 d3^c|
d2d2 eded|B6gf|g2b2 g2e2|d2B2 B3A|G2G2 A2B2|c6e^d|
e2a2 a2g2|f2e2 d2^c2|d^cd^c d2f2|g4-g4|]
